X:125
T:Charming Lovely Nancy
R:slide
H:Descended from the schottische/barndance "Maggie Pickens"
H:/ "The Whole Chicken in the Soup"
Z:id:hn-slide-125
M:6/8
L:1/8
K:G
G2E D2E | G2A B3 | cBA BAG | A2G EDE |
G2E D2E | G2A B3 | d2B ABA | G3 G3 :|
|: efg d2B | c2e d3 | d2B A2G | E2A ABA |
[1 efg d2B | c2e d3 | d2B ABA | G3 G3 :|
[2 G2E D2E | G2A B3 | d2B ABA | G3 G3 ||

